svgs/sharp-light/ruble-sign.svg

<svg xmlns="http://www.w3.org/2000/svg" viewBox="0 0 384 512"><!--! Font Awesome Pro 6.4.0 by @fontawesome - https://fontawesome.com License - https://fontawesome.com/license (Commercial License) Copyright 2023 Fonticons, Inc. --><path d="M80 32H64V48 288H0v32H64v64H0v32H64v48 16H96V464 416H320V384H96V320H240c79.5 0 144-64.5 144-144s-64.5-144-144-144H80zM96 288V64H240c61.9 0 112 50.1 112 112s-50.1 112-112 112H96z"/></svg>

<svg xmlns="http://www.w3.org/2000/svg" viewBox="0 0 384 512"><!--! Font Awesome Pro 6.6.0 by @fontawesome - https://fontawesome.com License - https://fontawesome.com/license (Commercial License) Copyright 2024 Fonticons, Inc. --><path d="M80 32L64 32l0 16 0 240L0 288l0 32 64 0 0 64L0 384l0 32 64 0 0 48 0 16 32 0 0-16 0-48 224 0 0-32L96 384l0-64 144 0c79.5 0 144-64.5 144-144s-64.5-144-144-144L80 32zM96 288L96 64l144 0c61.9 0 112 50.1 112 112s-50.1 112-112 112L96 288z"/></svg>
